svg/NEPAnode-FreeOpenSourceLicenses/licenses-cc-share.svg

<svg enable-background="new 5.5 -3.5 64 64" viewBox="5.5 -3.5 64 64" xmlns="http://www.w3.org/2000/svg"><circle cx="37.946" cy="28.887" fill="#fff" r="29.704"/><path d="m37.443-3.5c8.951 0 16.531 3.105 22.742 9.315 6.208 6.172 9.315 13.733 9.315 22.685 0 8.954-3.049 16.457-9.145 22.514-6.437 6.324-14.08 9.486-22.912 9.486-8.649 0-16.15-3.143-22.514-9.429-6.285-6.285-9.429-13.807-9.429-22.57 0-8.723 3.144-16.285 9.429-22.685 6.209-6.211 13.714-9.316 22.514-9.316m.114 5.772c-7.276 0-13.428 2.572-18.457 7.715-5.22 5.296-7.829 11.467-7.829 18.513 0 7.125 2.59 13.257 7.77 18.4 5.181 5.182 11.352 7.771 18.514 7.771 7.123 0 13.334-2.609 18.629-7.828 5.03-4.876 7.543-10.99 7.543-18.343 0-7.313-2.553-13.485-7.656-18.513-5.067-5.145-11.239-7.715-18.514-7.715m13.03 17.09c.494 0 .914.171 1.256.513.344.343.516.763.516 1.258v23.542c0 .495-.172.914-.516 1.256-.342.343-.762.516-1.256.516h-17.429c-.496 0-.914-.171-1.258-.516-.344-.343-.514-.761-.514-1.256v-6.973h-6.971c-.497 0-.915-.17-1.258-.513-.342-.342-.514-.761-.514-1.258v-23.54c0-.458.151-.848.458-1.171.303-.323.685-.523 1.142-.6h.171 17.428c.494 0 .914.171 1.258.514.342.342.514.763.514 1.258v6.972h6.973zm-24.458 14.857h5.257v-13.09c0-.457.151-.847.458-1.171.304-.322.667-.523 1.085-.6h.228 6.972v-5.2h-14v20.06m22.743-11.372h-14v20.06h14v-20.06"/></svg>

<?xml version="1.0" encoding="utf-8"?>
<!-- Generator: Adobe Illustrator 13.0.2, SVG Export Plug-In . SVG Version: 6.00 Build 14948)  --><svg enable-background="new 5.5 -3.5 64 64" height="64px" id="Layer_1" space="preserve" version="1.0" viewBox="5.5 -3.5 64 64" width="64px" x="0px" xmlns="http://www.w3.org/2000/svg" xmlns:xlink="http://www.w3.org/1999/xlink" y="0px">
  <metadata>
    <rdf:RDF xmlns:cc="http://web.resource.org/cc/" xmlns:dc="http://purl.org/dc/elements/1.1/" xmlns:rdf="http://www.w3.org/1999/02/22-rdf-syntax-ns#">
      <cc:Work rdf:about="">
        <dc:title></dc:title>
        <dc:description></dc:description>
        <dc:subject>
          <rdf:Bag>
            <rdf:li></rdf:li>
          </rdf:Bag>
        </dc:subject>
        <dc:publisher>
          <cc:Agent rdf:about="http://creativecommons.org/about/downloads">
            <dc:title>Source: Creative Commons, Source: Creative Commons, Source: Creative Commons</dc:title>
          </cc:Agent>
        </dc:publisher>
        <dc:creator>
          <cc:Agent>
            <dc:title></dc:title>
          </cc:Agent>
        </dc:creator>
        <dc:rights>
          <cc:Agent>
            <dc:title></dc:title>
          </cc:Agent>
        </dc:rights>
        <dc:date></dc:date>
        <dc:format>image/svg+xml</dc:format>
        <dc:type rdf:resource="http://purl.org/dc/dcmitype/StillImage"/>
        <cc:license rdf:resource="http://creativecommons.org/licenses/by/3.0/"/>
        <dc:language>en</dc:language>
      </cc:Work>
    </rdf:RDF>
  </metadata>
  <g>
    <circle cx="37.946" cy="28.887" fill="#FFFFFF" r="29.704"/>
    <g>
      <path d="M37.443-3.5c8.951,0,16.531,3.105,22.742,9.315C66.393,11.987,69.5,19.548,69.5,28.5c0,8.954-3.049,16.457-9.145,22.514    C53.918,57.338,46.279,60.5,37.443,60.5c-8.649,0-16.153-3.143-22.514-9.429C8.644,44.786,5.5,37.264,5.5,28.501    c0-8.723,3.144-16.285,9.429-22.685C21.138-0.395,28.643-3.5,37.443-3.5z M37.557,2.272c-7.276,0-13.428,2.572-18.457,7.715    c-5.22,5.296-7.829,11.467-7.829,18.513c0,7.125,2.59,13.257,7.77,18.4c5.181,5.182,11.352,7.771,18.514,7.771    c7.123,0,13.334-2.609,18.629-7.828c5.029-4.876,7.543-10.99,7.543-18.343c0-7.313-2.553-13.485-7.656-18.513    C51.004,4.842,44.832,2.272,37.557,2.272z M50.586,19.357c0.494,0,0.914,0.171,1.256,0.513c0.344,0.343,0.516,0.763,0.516,1.258    v23.542c0,0.495-0.172,0.914-0.516,1.256c-0.342,0.343-0.762,0.516-1.256,0.516H33.157c-0.496,0-0.914-0.171-1.258-0.516    c-0.344-0.343-0.514-0.761-0.514-1.256v-6.973h-6.971c-0.497,0-0.915-0.17-1.258-0.513c-0.342-0.342-0.514-0.761-0.514-1.258    V12.386c0-0.458,0.151-0.848,0.458-1.171c0.303-0.323,0.685-0.523,1.142-0.6h0.171h17.428c0.494,0,0.914,0.171,1.258,0.514    c0.342,0.342,0.514,0.763,0.514,1.258v6.972H50.586z M26.128,34.214h5.257V21.128c0-0.457,0.151-0.847,0.458-1.171    c0.304-0.322,0.667-0.523,1.085-0.6h0.228h6.972v-5.2h-14V34.214z M48.871,22.842h-14v20.058h14V22.842z"/>
    </g>
  </g>
</svg>
